P3
24 24
255
255 90 90 255 90 90 255 90 90 255 90 90 255 90 90 255 90 90 255 210 90 255 210 90 255 210 90 255 210 90 255 210 90 255 210 90 90 200 255 90 200 255 90 200 255 90 200 255 90 200 255 90 200 255 90 255 170 90 255 170 90 255 170 90 255 170 90 255 170 90 255 170
255 90 90 255 90 90 255 90 90 255 90 90 255 90 90 255 90 90 255 210 90 255 210 90 255 210 90 255 210 90 255 210 90 255 210 90 90 200 255 90 200 255 90 200 255 90 200 255 90 200 255 90 200 255 90 255 170 90 255 170 90 255 170 90 255 170 90 255 170 90 255 170
255 90 90 255 90 90 255 90 90 255 90 90 255 90 90 255 90 90 255 210 90 255 210 90 255 210 90 255 210 90 255 210 90 255 210 90 90 200 255 90 200 255 90 200 255 90 200 255 90 200 255 90 200 255 90 255 170 90 255 170 90 255 170 90 255 170 90 255 170 90 255 170
255 90 90 255 90 90 255 90 90 255 90 90 255 90 90 255 90 90 255 210 90 255 210 90 255 210 90 255 210 90 255 210 90 255 210 90 90 200 255 90 200 255 90 200 255 90 200 255 90 200 255 90 200 255 90 255 170 90 255 170 90 255 170 90 255 170 90 255 170 90 255 170
255 90 90 255 90 90 255 90 90 255 90 90 255 90 90 255 90 90 255 210 90 255 210 90 255 210 90 255 210 90 255 210 90 255 210 90 90 200 255 90 200 255 90 200 255 90 200 255 90 200 255 90 200 255 90 255 170 90 255 170 90 255 170 90 255 170 90 255 170 90 255 170
255 90 90 255 90 90 255 90 90 255 90 90 255 90 90 255 90 90 255 210 90 255 210 90 255 210 90 255 210 90 255 210 90 255 210 90 90 200 255 90 200 255 90 200 255 90 200 255 90 200 255 90 200 255 90 255 170 90 255 170 90 255 170 90 255 170 90 255 170 90 255 170
255 210 90 255 210 90 255 210 90 255 210 90 255 210 90 255 210 90 90 200 255 90 200 255 90 200 255 90 200 255 90 200 255 90 200 255 90 255 170 90 255 170 90 255 170 90 255 170 90 255 170 90 255 170 185 120 255 185 120 255 185 120 255 185 120 255 185 120 255 185 120 255
255 210 90 255 210 90 255 210 90 255 210 90 255 210 90 255 210 90 90 200 255 90 200 255 90 200 255 90 200 255 90 200 255 90 200 255 90 255 170 90 255 170 90 255 170 90 255 170 90 255 170 90 255 170 185 120 255 185 120 255 185 120 255 185 120 255 185 120 255 185 120 255
255 210 90 255 210 90 255 210 90 255 210 90 255 210 90 255 210 90 90 200 255 90 200 255 90 200 255 90 200 255 90 200 255 90 200 255 90 255 170 90 255 170 90 255 170 90 255 170 90 255 170 90 255 170 185 120 255 185 120 255 185 120 255 185 120 255 185 120 255 185 120 255
255 210 90 255 210 90 255 210 90 255 210 90 255 210 90 255 210 90 90 200 255 90 200 255 90 200 255 90 200 255 90 200 255 90 200 255 90 255 170 90 255 170 90 255 170 90 255 170 90 255 170 90 255 170 185 120 255 185 120 255 185 120 255 185 120 255 185 120 255 185 120 255
255 210 90 255 210 90 255 210 90 255 210 90 255 210 90 255 210 90 90 200 255 90 200 255 90 200 255 90 200 255 90 200 255 90 200 255 90 255 170 90 255 170 90 255 170 90 255 170 90 255 170 90 255 170 185 120 255 185 120 255 185 120 255 185 120 255 185 120 255 185 120 255
255 210 90 255 210 90 255 210 90 255 210 90 255 210 90 255 210 90 90 200 255 90 200 255 90 200 255 90 200 255 90 200 255 90 200 255 90 255 170 90 255 170 90 255 170 90 255 170 90 255 170 90 255 170 185 120 255 185 120 255 185 120 255 185 120 255 185 120 255 185 120 255
90 200 255 90 200 255 90 200 255 90 200 255 90 200 255 90 200 255 90 255 170 90 255 170 90 255 170 90 255 170 90 255 170 90 255 170 185 120 255 185 120 255 185 120 255 185 120 255 185 120 255 185 120 255 255 255 255 255 255 255 255 255 255 255 255 255 255 255 255 255 255 255
90 200 255 90 200 255 90 200 255 90 200 255 90 200 255 90 200 255 90 255 170 90 255 170 90 255 170 90 255 170 90 255 170 90 255 170 185 120 255 185 120 255 185 120 255 185 120 255 185 120 255 185 120 255 255 255 255 255 255 255 255 255 255 255 255 255 255 255 255 255 255 255
90 200 255 90 200 255 90 200 255 90 200 255 90 200 255 90 200 255 90 255 170 90 255 170 90 255 170 90 255 170 90 255 170 90 255 170 185 120 255 185 120 255 185 120 255 185 120 255 185 120 255 185 120 255 255 255 255 255 255 255 255 255 255 255 255 255 255 255 255 255 255 255
90 200 255 90 200 255 90 200 255 90 200 255 90 200 255 90 200 255 90 255 170 90 255 170 90 255 170 90 255 170 90 255 170 90 255 170 185 120 255 185 120 255 185 120 255 185 120 255 185 120 255 185 120 255 255 255 255 255 255 255 255 255 255 255 255 255 255 255 255 255 255 255
90 200 255 90 200 255 90 200 255 90 200 255 90 200 255 90 200 255 90 255 170 90 255 170 90 255 170 90 255 170 90 255 170 90 255 170 185 120 255 185 120 255 185 120 255 185 120 255 185 120 255 185 120 255 255 255 255 255 255 255 255 255 255 255 255 255 255 255 255 255 255 255
90 200 255 90 200 255 90 200 255 90 200 255 90 200 255 90 200 255 90 255 170 90 255 170 90 255 170 90 255 170 90 255 170 90 255 170 185 120 255 185 120 255 185 120 255 185 120 255 185 120 255 185 120 255 255 255 255 255 255 255 255 255 255 255 255 255 255 255 255 255 255 255
90 255 170 90 255 170 90 255 170 90 255 170 90 255 170 90 255 170 185 120 255 185 120 255 185 120 255 185 120 255 185 120 255 185 120 255 255 255 255 255 255 255 255 255 255 255 255 255 255 255 255 255 255 255 255 90 90 255 90 90 255 90 90 255 90 90 255 90 90 255 90 90
90 255 170 90 255 170 90 255 170 90 255 170 90 255 170 90 255 170 185 120 255 185 120 255 185 120 255 185 120 255 185 120 255 185 120 255 255 255 255 255 255 255 255 255 255 255 255 255 255 255 255 255 255 255 255 90 90 255 90 90 255 90 90 255 90 90 255 90 90 255 90 90
90 255 170 90 255 170 90 255 170 90 255 170 90 255 170 90 255 170 185 120 255 185 120 255 185 120 255 185 120 255 185 120 255 185 120 255 255 255 255 255 255 255 255 255 255 255 255 255 255 255 255 255 255 255 255 90 90 255 90 90 255 90 90 255 90 90 255 90 90 255 90 90
90 255 170 90 255 170 90 255 170 90 255 170 90 255 170 90 255 170 185 120 255 185 120 255 185 120 255 185 120 255 185 120 255 185 120 255 255 255 255 255 255 255 255 255 255 255 255 255 255 255 255 255 255 255 255 90 90 255 90 90 255 90 90 255 90 90 255 90 90 255 90 90
90 255 170 90 255 170 90 255 170 90 255 170 90 255 170 90 255 170 185 120 255 185 120 255 185 120 255 185 120 255 185 120 255 185 120 255 255 255 255 255 255 255 255 255 255 255 255 255 255 255 255 255 255 255 255 90 90 255 90 90 255 90 90 255 90 90 255 90 90 255 90 90
90 255 170 90 255 170 90 255 170 90 255 170 90 255 170 90 255 170 185 120 255 185 120 255 185 120 255 185 120 255 185 120 255 185 120 255 255 255 255 255 255 255 255 255 255 255 255 255 255 255 255 255 255 255 255 90 90 255 90 90 255 90 90 255 90 90 255 90 90 255 90 90
